X:1
T:Carol of the Bells
T:Carol of the Bells
T:Traditional
C:Traditional
%%score [ 1 2 3 ]
L:1/8
Q:1/2=80
M:3/4
K:G
V:1 treble nm="Soprano" snm="S"
V:2 treble nm="Alto" snm="A."
V:3 treble-8 nm="Tenor" snm="T"
V:1
 !tenuto!G2 .F.G .E2 | !tenuto!G2 .F.G .E2 | !tenuto!G2 .F.G .E2 | !tenuto!G2 .F.G .E2 |: %4
w: Hark! how the bells,|sweet sil- ver bells,|all seem to say:|"Throw cares a- way!"|
 !tenuto!G2 .F.G .E2 | !tenuto!G2 .F.G .E2 | G2 FG E2 | G2 FG E2 | G2 FG E2 | G2 FG E2 | G2 FG E2 | %11
w: Christ- mas is here,|bring- in good cheer,|to young and old,|meek and the bold.|Ding, dong, ding, dong.|That is their song,|with joy- ful ring,|
 G2 FG E2 | G2 FG E2 | G2 FG E2 | G2 FG E2 | G2 FG E2 | B2 AB G2 | B2 AB G2 | B2 AB G2 | B2 AB G2 | %20
w: all car- ol- ing.|One seems to hear,|words of good cheer,|from ev'- ry- where,|fill- ing the air.|O, how they pound,|rais- ing the sound,|o'er hill and dale,|tell- ing their tale.|
 e2 ee (dc) | B2 BB (AG) | A2 AA (BA) | E2 EE E2 | B,^C ^DE FG | AB A2 G2 | B,^C ^DE FG | %27
w: Clear- ly they ring, _|while peo- ple sing, _|songs of good cheer, _|Christ- mas is here!|Mer ry, mer ry, mer ry,|mer- ry Chtist- mas!|Mer- ry, mer- ry, mer- ry,|
 AB A2 G2 |1 G2 FG E2 | G2 FG E2 | G2 FG E2 | G2 FG E2 | !tenuto!G2 .F.G .E2 | %33
w: mer- ry Christ- mas!|On, on they send,|on with- out end,|their joy- ful tone,|to ev'- ry home.|Hark! how the bells,|
 !tenuto!G2 .F.G .E2 | !tenuto!G2 .F.G .E2 | !tenuto!G2 .F.G .E2 :|2 E6- || E6- | E6- | %39
w: sweet sil- ver bells,|all seem to say:|"Throw cares a- way!"|Dong.|_||
 !fermata!E6 | [GB]2 [FA]!fermata![GB] E2- | !fermata!E6 |] %42
w: |Ding, dong, ding, dong.|_|
V:2
 z6 | z6 | z6 | z6 |: E6 | D6 | C6 | B,6 | E6 | D6 | C6 | B,6 | E2 EE E2 | E2 EE E2 | E2 EE E2 | %15
w: ||||Ding,|dong,|ding,|dong.|Ding,|dong,|ding,|dong.|One seems to hear,|words of good cheer,|from ev'- ry- where,|
 E2 EE E2 | G2 FG E2 | G2 FG E2 | G2 FG E2 | G2 FG E2 | E2 EE E2 | E2 EE E2 | E6 | E6 | B,4 B,2 | %25
w: fill- ing the air.|O, how they pound,|rais- ing the sound,|o'er hill and dale,|tell- ing their tale.|Clear- ly they ring,|while peo- ple sing.|Ding,|dong.|Ring, ring,|
 (^C2 ^D2) E2 | B,4 B,2 | (^C2 ^D2) E2 |1 B,6 | A,6 | D6 | C6 | B,6- | B,6- | B,6 | z6 :|2 B,6- || %37
w: Christ _ mas!|Ring, ring,|Christ _ mas!|Ding,|dong,|ding,|ding.|Dong.|_|||Dong.|
 B,6- | B,6- | !fermata!B,6 | z6 | !fermata!B,6 |] %42
w: _||||Dong.|
V:3
 z6 | z6 | z6 | z6 |: z6 | z6 | z6 | z6 | c6 | B6 | A6 | E6 | A2 AA A2 | B2 BB B2 | c2 cc c2 | %15
w: ||||||||Ding,|dong,|ding,|dong.|One seems to hear,|words of good cheer,|from ev'- ry- where,|
 B2 BB B2 | B6 | ^c6 | d2 cB B2 | d2 cB B2 | (B4 A2) | B6 | c6 | B6 | z2 F4 | (G2 F2) B2 | z2 F4 | %27
w: fill- ing the air.|O,|how|your mes- sage sweet,|peel and pro- long.|Ding, _|dong,|ding,|dong.|Ring,|Christ _ mas!|Ring,|
 (G2 F2) B2 |1 E6 | E6 | E6 | E6 | E6- | E6- | E6 | z6 :|2 !tenuto!G2 .F.G .E2 || %37
w: Christ _ mas!|Ding,|dong,|ding,|ding.|Dong.|_|||On, on they send,|
 !tenuto!G2 .F.G .E2 | !tenuto!G2 .F.G .E2 | !tenuto!G2 .F.G .!fermata!E2 | z6 | !fermata!E6 |] %42
w: on with- out end,|their joy- ful tone|to ev'- ry home.||Dong.|

